www/assets/icons/screen_lock_rotation.svg

<svg width="24" height="24" viewBox="0 0 24 24" xmlns="http://www.w3.org/2000/svg" fill='currentColor'><g clip-path="url(#clip0_1616_2541)"><path d="M22.9037 13.27L20.3337 10.7L18.9237 12.11L21.1437 14.33L15.4837 19.99L4.16375 8.67L9.82375 3.01L11.9237 5.11L13.3337 3.7L10.8837 1.25C10.2937 0.66 9.34375 0.66 8.76375 1.25L2.40375 7.61C1.81375 8.2 1.81375 9.15 2.40375 9.73L14.4237 21.75C15.0137 22.34 15.9637 22.34 16.5437 21.75L22.9037 15.39C23.4937 14.8 23.4937 13.85 22.9037 13.27ZM8.12375 20.98C4.85375 19.44 2.51375 16.26 2.15375 12.5H0.653748C1.16375 18.66 6.31375 23.5 12.6037 23.5L13.2637 23.47L9.45375 19.65L8.12375 20.98ZM15.6537 9.5H20.6537C21.2037 9.5 21.6537 9.05 21.6537 8.5V4.5C21.6537 3.95 21.2037 3.5 20.6537 3.5V3C20.6537 1.62 19.5337 0.5 18.1537 0.5C16.7737 0.5 15.6537 1.62 15.6537 3V3.5C15.1037 3.5 14.6537 3.95 14.6537 4.5V8.5C14.6537 9.05 15.1037 9.5 15.6537 9.5ZM16.4537 3C16.4537 2.06 17.2137 1.3 18.1537 1.3C19.0937 1.3 19.8537 2.06 19.8537 3V3.5H16.4537V3Z"/></g><defs><clipPath id="clip0_1616_2541"><rect width="24" height="24"/></clipPath></defs></svg>

<svg xmlns="http://www.w3.org/2000/svg" width="24" height="24" viewBox="0 0 24 24" fill='currentColor'><g clip-path="url(#a)"><path d="m22.904 13.27-2.57-2.57-1.41 1.41 2.22 2.22-5.66 5.66L4.164 8.67l5.66-5.66 2.1 2.1 1.41-1.41-2.45-2.45a1.49 1.49 0 0 0-2.12 0l-6.36 6.36a1.49 1.49 0 0 0 0 2.12l12.02 12.02c.59.59 1.54.59 2.12 0l6.36-6.36c.59-.59.59-1.54 0-2.12m-14.78 7.71a10.49 10.49 0 0 1-5.97-8.48h-1.5c.51 6.16 5.66 11 11.95 11l.66-.03-3.81-3.82zm7.53-11.48h5c.55 0 1-.45 1-1v-4c0-.55-.45-1-1-1V3a2.5 2.5 0 0 0-5 0v.5c-.55 0-1 .45-1 1v4c0 .55.45 1 1 1m.8-6.5c0-.94.76-1.7 1.7-1.7s1.7.76 1.7 1.7v.5h-3.4z"/></g><defs><clipPath id="a"><path d="M0 0h24v24H0z"/></clipPath></defs></svg>
